assets/images/avatar/Avatar 08.svg

<svg fill="none" height="128" viewBox="0 0 128 128" width="128" xmlns="http://www.w3.org/2000/svg" xmlns:xlink="http://www.w3.org/1999/xlink"><mask id="a" height="124" maskUnits="userSpaceOnUse" width="114" x="7" y="2"><path clip-rule="evenodd" d="m70.0953 2.93566c17.3486.49829 34.7527 14.98524 44.3867 29.41054 8.803 13.1813 5.289 29.5407 2.4 45.122-3.131 16.8808-3.88 37.1538-19.1258 45.0698-15.4929 8.045-33.0208-2.35-48.8121-9.793-16.0344-7.558-34.2675-14.7675-39.32087-31.7475-5.33069-17.9119 2.52077-36.9957 14.62257-51.2431 9.5828-28.799636 27.8824-27.33479 45.8495-26.81874z" fill="#eff6f7" fill-rule="evenodd"/></mask><g mask="url(#a)"><path clip-rule="evenodd" d="m70.9901 8.75015c17.3487.49829 33.8579 9.17075 43.4919 23.59605 8.803 13.1813 5.289 29.5407 2.4 45.122-3.131 16.8808-3.88 37.1538-19.1258 45.0698-15.493 8.045-33.0208-2.35-48.8121-9.793-16.0344-7.558-34.2675-14.7675-39.32087-31.7475-5.33069-17.9119 2.52077-36.9957 14.62257-51.2431 11.631-13.6932 28.7772-21.5203 46.7443-21.00425z" fill="#eff6f7" fill-rule="evenodd"/><path d="m107.922 101.944c-10.2184-5.3515-8.8378-2.7427-20.6077-8.265-9.664-4.5318-11.6267-12.989-11.6267-21.4492 0-6.9516-7.1771-10.7947-14.5889-11.7638-7.4119.9691-13.5102 5.8636-13.5102 12.8 0 8.4632-1.219 16.2743-10.7093 21.1718-1.5908.8229-7.2594 2.2248-16.8899 7.4942-12.16001 6.653-14.9333 14.909-17.24644 26.493h122.42614c-2.31-11.581-4.953-20.06-17.247-26.481z" fill="#a9b4c6"/><path d="m125.169 128.431h-122.42614c2.31009-11.581 5.08947-19.837 17.24644-26.514 9.6335-5.2666 15.3021-6.6624 16.8869-7.4914 2.4018-1.1869 4.5399-2.8453 6.2872-4.8762.4145 4.0046 12.2362 26.0636 18.5448 26.0636 4.8061 0 15.1253-14.169 20.2605-25.4845 1.5825 1.4511 3.382 2.646 5.3334 3.5413 11.776 5.5254 10.3923 2.9105 20.6169 8.2592 12.279 6.439 14.943 14.915 17.25 26.502z" fill="#774985"/><path d="m76.2819 79.215c-.2219-1.1728-.3776-2.3572-.4663-3.5475-.1975-.4368-.3014-.9102-.3047-1.3897-.0366-.5059-.0489-1.152-.0489-2.0571-.0042-.325-.0255-.6495-.0639-.9722-.0244-.2103-.0488-.4206-.0854-.6095-9.3196.6095-20.1143.7527-28.7847 1.3196 0 .0945-.0183.1829-.0183.2773 0 5.8789-.957 11.7517-4.7756 16.3109 7.7592 3.075 26.8617 5.056 34.5478-9.3318z" fill="#51527a"/><g fill="#28213d"><path d="m65.3592 82.7136c.8564-.3047 2.8373-1.3135 5.0164-2.9958.4296-.34.7095-.8342.7802-1.3775.1366-.9281.1683-1.8686.0945-2.8038-.2225-2.5966-.8229-5.4461-2.4839-7.5794-2.0053-2.5783-5.3424-3.4103-8.4784-3.3981-2.5661 0-5.4096.5912-7.4545 2.3101-2.4686 2.0784-3.139 5.6106-3.4042 8.6674-.0763 1.001-.0354 2.0074.1219 2.9989.0785.5424.3649 1.0331.7985 1.3683 2.0785 1.5726 3.9619 2.5265 4.7695 2.8099 1.6015.5081 3.2666.7882 4.9463.832l.1737-.0274.1737.0274c1.6797-.0435 3.3448-.3236 4.9463-.832z"/><path d="m36.1387 71.2394c-1.3562 5.6899-1.6458 11.5809-2.7612 17.3257-.9417 4.8548-2.6484 9.8651-6.4427 13.0379-.8381.701-1.7676 1.304-2.4716 2.133s-1.152 1.993-.8046 3.026c.4602 1.381 2.1333 1.991 3.5779 1.933 3.4164-.134 6.2629-2.877 7.674-5.986 1.411-3.1085 1.7036-6.5919 2.2095-9.9717 1.1672-7.8233 3.5627-15.4058 5.9459-22.9486.6095-1.8895 1.2342-3.8492 2.5996-5.2815.7314-.768 1.6975-1.4446 1.8895-2.4869s-.4389-1.9779-1.0331-2.819c-1.2191-1.6976-1.7189-3.0294-3.5261-1.277-1.2064 1.1863-2.2617 2.517-3.1421 3.9619-1.7912 2.8687-3.0497 6.0373-3.715 9.3532z"/><path d="m38.0648 83.7986c-.4054 2.691-.5638 5.4187-1.0514 8.0945-.9905 5.4583-3.3189 10.5689-4.928 15.8749-.32 1.061-.6095 2.158-.5242 3.264s.64 2.231 1.6304 2.728c.4392.195.9171.289 1.3976.272.4805-.016.951-.142 1.3758-.367.8469-.455 1.5851-1.088 2.1638-1.856 4.0167-4.876 4.6262-11.669 4.8-17.9807.1737-6.3116.1737-12.992 3.328-18.4777.9143-1.5787 2.0572-3.0111 2.9836-4.5714.9265-1.5604 1.6427-3.3524 1.5543-5.1597-.0579-1.219-1.024-4.3733-2.7093-3.6937-1.3413.5472-2.4731 1.5081-3.2305 2.7429-2.1029 3.3188-4.1295 8.9112-5.2968 12.6628-.66 2.115-1.1592 4.2769-1.4933 6.4671z"/><path d="m80.5607 82.098c.6095 2.6484 1.4965 5.2389 2.042 7.9055 1.1124 5.434.8533 11.0415 1.3378 16.5665.0976 1.107.2317 2.234.7285 3.225.4967.99 1.4262 1.828 2.5325 1.926.4799.016.9573-.076 1.3964-.27s.8286-.485 1.1392-.852c.6156-.739 1.0657-1.601 1.3197-2.529 1.9017-6.034-.0549-12.5533-2.2492-18.487s-4.6781-12.1204-3.7943-18.3863c.256-1.8042.7863-3.5627 1.0606-5.3638.2743-1.8012.2803-3.712-.4785-5.3669-.5029-1.0971-2.5814-3.6754-3.8918-2.4198-1.0393 1.0051-1.732 2.3147-1.9779 3.7394-.7193 3.8614-.512 9.8103-.1981 13.7143.1757 2.2225.5211 4.4283 1.0331 6.5981z"/><path d="m89.155 59.3476c.7619 4.5257 0 9.1641.2743 13.7478.6095 10.3954 6.4305 19.6419 10.176 29.3606.3596.933.7067 1.899.7097 2.898.003 1-.3958 2.058-1.243 2.591-1.0667.67-2.5357.305-3.4926-.512-.957-.817-1.5086-2.005-2.0206-3.154-3.1299-7.077-6.3421-13.9798-7.7836-21.6537-.5699-3.0263-.9142-6.0953-1.2617-9.1429l-1.2983-11.4621c-.3261-2.8983-1.5055-5.3729-1.6823-8.3444-.0822-1.408 0-3.1542 1.341-3.9923 1.4263-.8899 2.3009.4388 3.0476 1.5238 1.6416 2.454 2.7437 5.2286 3.2335 8.1402z"/><path d="m53.6716 69.5692c.1782-.2604.3015-.5544.3623-.8641.0607-.3097.0578-.6285-.0087-.937-.1288-.4774-.4038-.9024-.7864-1.2156s-.8536-.4987-1.347-.5307c-1.4811-.0609-2.624 1.2526-3.4194 2.5052-3.2853 5.1809-4.8183 11.2944-5.309 17.4019-.4907 6.1074.0001 12.2392.509 18.3441.0305.982.2103 1.954.5333 2.883.3719.914 1.0789 1.734 2.0236 1.996 1.6153.451 3.2671-.936 3.7669-2.533s.1768-3.325-.0792-4.98c-1.665-10.8326-.3677-21.9143 3.7546-32.0698z"/><path d="m84.2149 64.4066c1.2922 4.739 1.7706 10.6088 1.1001 15.4758-1.3897 10.1059-2.6209 19.581-.6582 29.5926.2103 1.066 2.4746 7.134.3321 7.963-4.6842 1.829-6.7992-5.647-7.0643-7.061-2.7429-14.6744 3.0902-30.0283-.0884-44.6173-.3597-1.6518-.8351-3.3188-.6949-5.0042.1158-1.3866.6492-2.6819 1.2679-3.9161.1981-.3993.5271-1.4141 1.0087-1.3471.3047.0457.9966 1.405 1.1794 1.6792 1.5025 2.2431 2.9044 4.608 3.6176 7.2351z"/><path d="m79.8446 75.375c.3657 7.1284-.4298 14.275-1.7006 21.2998-.4694 2.5966-1.0027 5.1812-1.5238 7.7622l-1.5756 7.619c-.4938 2.393-3.7913 2.789-4.7878.561l-.064-.146c-.6736-1.677-.4816-3.557-.253-5.349 1.1154-8.7527 4.6263-17.1337 5.1657-25.9382.4206-6.8998.1249-9.7341-.0823-11.1025-.3322-2.2095.5639-6.0953 2.8679-7.0674 1.0179 1.2739 1.0635 4.224 1.3073 5.824.3246 2.1668.5402 4.3486.6462 6.5371z"/><path d="m55.4331 19.2775c-.7347-1.4135-1.0322-3.0136-.8547-4.5967.1774-1.5831.8219-3.0776 1.8513-4.2933.8747-.99652 2.1029-2.09976 1.7281-3.37367-.2835-.95085-1.4172-1.42019-2.4046-1.32266-1.2435.1219-2.3406.93257-3.0873 1.93828-.7466 1.00572-1.1885 2.19734-1.603 3.37675-.6095 1.7372-1.1734 3.52-1.2587 5.3577s.3626 3.7699 1.5756 5.1566c1.2129 1.3867 3.1543 2.0389 4.8305 1.4446.2393-.3182.3629-.7084.3504-1.1063-.0579-.9478-.6765-1.7463-1.1276-2.5813z"/><path d="m40.1768 11.0641c-.1805-.6311-.2149-1.29496-.1006-1.94131.0617-.32274.2126-.62171.4356-.86303s.5092-.41534.8261-.50231c1.1703-.22857 1.9993 1.06362 2.5509 2.13334 1.5933 3.04571 3.8042 5.72571 6.4914 7.86891 1.3714 1.0911 3.1695 2.2431 3.4834 4.1113.3596 2.1333-.963 2.4381-2.6149 1.8072-3.4882-1.3597-6.4781-3.7521-8.5698-6.8571-1.1806-1.749-2.0288-3.7006-2.5021-5.757z"/></g><path d="m81.7919 63.1479c-1.7341.8777-2.1576-1.1916-2.307-3.3798-.1493-2.24.3596-6.0343 1.9413-7.6831 1.5818-1.6487 3.8919-2.5447 4.9494-.0762.899 2.1029-.4602 9.0515-4.5837 11.1391z" fill="#a9b4c6"/><path d="m40.6279 63.1479c1.7341.8777 2.1576-1.1916 2.307-3.3798.1493-2.24-.3596-6.0343-1.9413-7.6831-1.5818-1.6487-3.8918-2.5447-4.9494-.0762-.9021 2.1029.4602 9.0515 4.5837 11.1391z" fill="#a9b4c6"/><path d="m87.9116 36.3045c-.4084-.7741-1.2404-1.411-1.4141-2.2674s.1616-2.2339 0-3.0964c-.9143-4.9859-3.8735-3.3981-5.6869-5.7173-.9143-1.1734-.582-2.3833-2.6453-3.5018-1.8133-.9813-3.3524.5608-4.6812.1524-.9752-.3047-.2285-1.6609-2.7946-2.4167-1.8286-.5364-3.1238 1.091-4.0045 1.0575-1.0362-.0396-1.3624-1.9657-3.9224-1.9657-2.7276 0-3.8216 1.7493-4.8426 1.664-1.5665-.1341-1.7402-1.3684-4.1326-.5913-2.7428.893-2.4747 2.5509-4.1448 3.0477-1.4842.4358-1.6609-.9143-3.9619-.3444-1.7554.4419-3.3127 2.2004-3.8034 4.2666-.384 1.6214.2042 3.0477-1.2586 3.7547-1.5878.7558-4.3977 3.9284-3.581 7.4911.1585.6918.8381 1.3409.7832 2.0845s-.7253 1.4416-.9995 2.0998c-.6096 1.4233-.9357 3.264-.1037 4.669.5821.9874 1.3897 1.3318 1.6061 2.6179.1859 1.1215 0 2.2766.2103 3.3981.2651 1.3623.5821 2.9988 1.664 3.9771 2.9348 2.6515 7.0095 2.9136 10.7672 3.1177 3.2183.1768 6.4345.254 9.6488.2317 3.2162.0183 6.4325-.059 9.6488-.2317 1.9779-.1219 3.8826-.384 5.8392-.6552 1.7371-.2408 5.2084-.899 5.7904-2.4381.5559-1.4025.896-2.8811 1.0088-4.3855.0701-1.8286 2.7764-2.6057 3.6053.0609 1.981-2.0297 1.0972-3.0659 1.5513-4.7451.3047-1.1429.9813-1.2191 1.1916-2.7947.3047-2.3436-1.1916-2.115-1.2678-3.779-.0153-.1006.8442-2.9928-.0701-4.7604z" fill="#28213d"/><path d="m76.4068 16.1231c-.0335-.0701-.064-.1432-.1006-.2163-.5624-1.1436-1.4323-2.1078-2.5122-2.7845-1.0798-.6766-2.3269-1.039-3.6012-1.0464-1.341 0-2.6424.3596-3.8492-.3931-.8137-.5059-1.2434-1.0758-2.1943-1.3623-2.3284-.70098-4.992-.3048-7.1223.8198-2.7429 1.4263-6.336 5.2053-5.9855 8.5851.1707 1.6366 1.3836 3.0202 2.816 3.8278 3.1909 1.7951 7.3142 1.6579 10.8556 1.6701h.2347c1.9718 0 5.8758-.0853 8.1676-.7162.4967-.1371.9722-.7375 1.4111-.8137.2438-.0426 1.3409-1.1184 1.5238-1.5725.7893-2.0176 1.2464-3.9284.3565-5.9978z" fill="#28213d"/><path d="m79.936 46.9986c-1.2587-7.3631-2.3924-9.9383-5.1109-12.736-2.3527-2.4168-9.792-2.688-14.4274-2.8374-4.4252-.1432-9.216.5242-13.4461 3.3524-1.4537.9753-2.3772 2.6332-4.5074 8.9996-.829 2.4778-2.6729 6.5189-2.4169 10.5905.3444 5.5253 1.7403 13.4705 3.7151 18.2857 2.6088 6.3391 9.28 8.2286 11.453 8.8381.7314.1951 7.619 1.0271 10.6666.0762 5.4278-1.6884 11.3159-6.3086 13.4309-11.9497 1.8286-4.8762 1.8438-9.1063 1.8438-14.6438.0031-1.9261-.7527-5.3425-1.2007-7.9756z" fill="#a9b4c6"/><path d="m67.1299 71.3277c.0305-.1036.061-.2042.0853-.3048.0182-.0658.0182-.1353 0-.2011-.1432-.5181-2.2949-1.0331-2.7855-1.1398-1.6244-.3505-3.3371-.3048-4.9859-.2042-2.0296.1295-4.0091.6862-5.8088 1.6335-.9417.6735 1.4111 4.8458 4.8762 5.3364 3.6815.5059 7.5155-1.4872 8.6187-5.12z" fill="#a9b4c6"/></g></svg>

<svg width="128" height="128" viewBox="0 0 128 128" fill="none" xmlns="http://www.w3.org/2000/svg">
<mask id="mask0_457_1649" style="mask-type:alpha" maskUnits="userSpaceOnUse" x="7" y="2" width="114" height="124">
<path fill-rule="evenodd" clip-rule="evenodd" d="M70.0953 2.93566C87.4439 3.43395 104.848 17.9209 114.482 32.3462C123.285 45.5275 119.771 61.8869 116.882 77.4682C113.751 94.349 113.002 114.622 97.7562 122.538C82.2633 130.583 64.7354 120.188 48.9441 112.745C32.9097 105.187 14.6766 97.9775 9.62323 80.9975C4.29254 63.0856 12.144 44.0018 24.2458 29.7544C33.8286 0.954764 52.1282 2.41961 70.0953 2.93566Z" fill="#EFF6F7"/>
</mask>
<g mask="url(#mask0_457_1649)">
<path fill-rule="evenodd" clip-rule="evenodd" d="M70.9901 8.75015C88.3388 9.24844 104.848 17.9209 114.482 32.3462C123.285 45.5275 119.771 61.8869 116.882 77.4682C113.751 94.349 113.002 114.622 97.7562 122.538C82.2632 130.583 64.7354 120.188 48.9441 112.745C32.9097 105.187 14.6766 97.9775 9.62323 80.9975C4.29254 63.0856 12.144 44.0018 24.2458 29.7544C35.8768 16.0612 53.023 8.2341 70.9901 8.75015Z" fill="#EFF6F7"/>
<path d="M107.922 101.944C97.7036 96.5925 99.0842 99.2013 87.3143 93.679C77.6503 89.1472 75.6876 80.69 75.6876 72.2298C75.6876 65.2782 68.5105 61.4351 61.0987 60.466C53.6868 61.4351 47.5885 66.3296 47.5885 73.266C47.5885 81.7292 46.3695 89.5403 36.8792 94.4378C35.2884 95.2607 29.6198 96.6626 19.9893 101.932C7.82929 108.585 5.056 116.841 2.74286 128.425H125.169C122.859 116.844 120.216 108.365 107.922 101.944Z" fill="#A9B4C6"/>
<path d="M125.169 128.431H2.74286C5.05295 116.85 7.83233 108.594 19.9893 101.917C29.6228 96.6504 35.2914 95.2546 36.8762 94.4256C39.278 93.2387 41.4161 91.5803 43.1634 89.5494C43.5779 93.554 55.3996 115.613 61.7082 115.613C66.5143 115.613 76.8335 101.444 81.9687 90.1285C83.5512 91.5796 85.3507 92.7745 87.3021 93.6698C99.0781 99.1952 97.6944 96.5803 107.919 101.929C120.198 108.368 122.862 116.844 125.169 128.431Z" fill="#774985"/>
<path d="M76.2819 79.215C76.06 78.0422 75.9043 76.8578 75.8156 75.6675C75.6181 75.2307 75.5142 74.7573 75.5109 74.2778C75.4743 73.7719 75.462 73.1258 75.462 72.2207C75.4578 71.8957 75.4365 71.5712 75.3981 71.2485C75.3737 71.0382 75.3493 70.8279 75.3127 70.639C65.9931 71.2485 55.1984 71.3917 46.528 71.9586C46.528 72.0531 46.5097 72.1415 46.5097 72.2359C46.5097 78.1148 45.5527 83.9876 41.7341 88.5468C49.4933 91.6218 68.5958 93.6028 76.2819 79.215Z" fill="#51527A"/>
<path d="M65.3592 82.7136C66.2156 82.4089 68.1965 81.4001 70.3756 79.7178C70.8052 79.3778 71.0851 78.8836 71.1558 78.3403C71.2924 77.4122 71.3241 76.4717 71.2503 75.5365C71.0278 72.9399 70.4274 70.0904 68.7664 67.9571C66.7611 65.3788 63.424 64.5468 60.288 64.559C57.7219 64.559 54.8784 65.1502 52.8335 66.8691C50.3649 68.9475 49.6945 72.4797 49.4293 75.5365C49.353 76.5375 49.3939 77.5439 49.5512 78.5354C49.6297 79.0778 49.9161 79.5685 50.3497 79.9037C52.4282 81.4763 54.3116 82.4302 55.1192 82.7136C56.7207 83.2217 58.3858 83.5018 60.0655 83.5456L60.2392 83.5182L60.4129 83.5456C62.0926 83.5021 63.7577 83.222 65.3592 82.7136V82.7136Z" fill="#28213D"/>
<path d="M36.1387 71.2394C34.7825 76.9293 34.4929 82.8203 33.3775 88.5651C32.4358 93.4199 30.7291 98.4302 26.9348 101.603C26.0967 102.304 25.1672 102.907 24.4632 103.736C23.7592 104.565 23.3112 105.729 23.6586 106.762C24.1188 108.143 25.7919 108.753 27.2365 108.695C30.6529 108.561 33.4994 105.818 34.9105 102.709C36.3215 99.6005 36.6141 96.1171 37.12 92.7373C38.2872 84.914 40.6827 77.3315 43.0659 69.7887C43.6754 67.8992 44.3001 65.9395 45.6655 64.5072C46.3969 63.7392 47.363 63.0626 47.555 62.0203C47.747 60.978 47.1161 60.0424 46.5219 59.2013C45.3028 57.5037 44.803 56.1719 42.9958 57.9243C41.7894 59.1106 40.7341 60.4413 39.8537 61.8862C38.0625 64.7549 36.804 67.9235 36.1387 71.2394V71.2394Z" fill="#28213D"/>
<path d="M38.0648 83.7986C37.6594 86.4896 37.501 89.2173 37.0134 91.8931C36.0229 97.3514 33.6945 102.462 32.0854 107.768C31.7654 108.829 31.4759 109.926 31.5612 111.032C31.6465 112.138 32.2012 113.263 33.1916 113.76C33.6308 113.955 34.1087 114.049 34.5892 114.032C35.0697 114.016 35.5402 113.89 35.965 113.665C36.8119 113.21 37.5501 112.577 38.1288 111.809C42.1455 106.933 42.755 100.14 42.9288 93.8283C43.1025 87.5167 43.1025 80.8363 46.2568 75.3506C47.1711 73.7719 48.314 72.3395 49.2404 70.7792C50.1669 69.2188 50.8831 67.4268 50.7947 65.6195C50.7368 64.4005 49.7707 61.2462 48.0854 61.9258C46.7441 62.473 45.6123 63.4339 44.8549 64.6687C42.752 67.9875 40.7254 73.5799 39.5581 77.3315C38.8981 79.4465 38.3989 81.6084 38.0648 83.7986V83.7986Z" fill="#28213D"/>
<path d="M80.5607 82.098C81.1702 84.7464 82.0572 87.3369 82.6027 90.0035C83.7151 95.4375 83.456 101.045 83.9405 106.57C84.0381 107.677 84.1722 108.804 84.669 109.795C85.1657 110.785 86.0952 111.623 87.2015 111.721C87.6814 111.737 88.1588 111.645 88.5979 111.451C89.037 111.257 89.4265 110.966 89.7371 110.599C90.3527 109.86 90.8028 108.998 91.0568 108.07C92.9585 102.036 91.0019 95.5167 88.8076 89.583C86.6133 83.6493 84.1295 77.4626 85.0133 71.1967C85.2693 69.3925 85.7996 67.634 86.0739 65.8329C86.3482 64.0317 86.3542 62.1209 85.5954 60.466C85.0925 59.3689 83.014 56.7906 81.7036 58.0462C80.6643 59.0513 79.9716 60.3609 79.7257 61.7856C79.0064 65.647 79.2137 71.5959 79.5276 75.4999C79.7033 77.7224 80.0487 79.9282 80.5607 82.098V82.098Z" fill="#28213D"/>
<path d="M89.155 59.3476C89.9169 63.8733 89.155 68.5117 89.4293 73.0954C90.0388 83.4908 95.8598 92.7373 99.6053 102.456C99.9649 103.389 100.312 104.355 100.315 105.354C100.318 106.354 99.9192 107.412 99.072 107.945C98.0053 108.615 96.5363 108.25 95.5794 107.433C94.6224 106.616 94.0708 105.428 93.5588 104.279C90.4289 97.202 87.2167 90.2992 85.7752 82.6253C85.2053 79.599 84.861 76.53 84.5135 73.4824L83.2152 62.0203C82.8891 59.122 81.7097 56.6474 81.5329 53.6759C81.4507 52.2679 81.5329 50.5217 82.8739 49.6836C84.3002 48.7937 85.1748 50.1224 85.9215 51.2074C87.5631 53.6614 88.6652 56.436 89.155 59.3476V59.3476Z" fill="#28213D"/>
<path d="M53.6716 69.5692C53.8498 69.3088 53.9731 69.0148 54.0339 68.7051C54.0946 68.3954 54.0917 68.0766 54.0252 67.7681C53.8964 67.2907 53.6214 66.8657 53.2388 66.5525C52.8562 66.2393 52.3852 66.0538 51.8918 66.0218C50.4107 65.9609 49.2678 67.2744 48.4724 68.527C45.1871 73.7079 43.6541 79.8214 43.1634 85.9289C42.6727 92.0363 43.1635 98.1681 43.6724 104.273C43.7029 105.255 43.8827 106.227 44.2057 107.156C44.5776 108.07 45.2846 108.89 46.2293 109.152C47.8446 109.603 49.4964 108.216 49.9962 106.619C50.496 105.022 50.173 103.294 49.917 101.639C48.252 90.8064 49.5493 79.7247 53.6716 69.5692V69.5692Z" fill="#28213D"/>
<path d="M84.2149 64.4066C85.5071 69.1456 85.9855 75.0154 85.315 79.8824C83.9253 89.9883 82.6941 99.4634 84.6568 109.475C84.8671 110.541 87.1314 116.609 84.9889 117.438C80.3047 119.267 78.1897 111.791 77.9246 110.377C75.1817 95.7026 81.0148 80.3487 77.8362 65.7597C77.4765 64.1079 77.0011 62.4409 77.1413 60.7555C77.2571 59.3689 77.7905 58.0736 78.4092 56.8394C78.6073 56.4401 78.9363 55.4253 79.4179 55.4923C79.7226 55.538 80.4145 56.8973 80.5973 57.1715C82.0998 59.4146 83.5017 61.7795 84.2149 64.4066Z" fill="#28213D"/>
<path d="M79.8446 75.375C80.2103 82.5034 79.4148 89.65 78.144 96.6748C77.6746 99.2714 77.1413 101.856 76.6202 104.437L75.0446 112.056C74.5508 114.449 71.2533 114.845 70.2568 112.617L70.1928 112.471C69.5192 110.794 69.7112 108.914 69.9398 107.122C71.0552 98.3693 74.5661 89.9883 75.1055 81.1838C75.5261 74.284 75.2304 71.4497 75.0232 70.0813C74.691 67.8718 75.5871 63.986 77.8911 63.0139C78.909 64.2878 78.9546 67.2379 79.1984 68.8379C79.523 71.0047 79.7386 73.1865 79.8446 75.375V75.375Z" fill="#28213D"/>
<path d="M55.4331 19.2775C54.6984 17.864 54.4009 16.2639 54.5784 14.6808C54.7558 13.0977 55.4003 11.6032 56.4297 10.3875C57.3044 9.39098 58.5326 8.28774 58.1578 7.01383C57.8743 6.06298 56.7406 5.59364 55.7532 5.69117C54.5097 5.81307 53.4126 6.62374 52.6659 7.62945C51.9193 8.63517 51.4774 9.82679 51.0629 11.0062C50.4534 12.7434 49.8895 14.5262 49.8042 16.3639C49.7189 18.2016 50.1668 20.1338 51.3798 21.5205C52.5927 22.9072 54.5341 23.5594 56.2103 22.9651C56.4496 22.6469 56.5732 22.2567 56.5607 21.8588C56.5028 20.911 55.8842 20.1125 55.4331 19.2775Z" fill="#28213D"/>
<path d="M40.1768 11.0641C39.9963 10.433 39.9619 9.76914 40.0762 9.12279C40.1379 8.80005 40.2888 8.50108 40.5118 8.25976C40.7348 8.01844 41.021 7.84442 41.3379 7.75745C42.5082 7.52888 43.3372 8.82107 43.8888 9.89079C45.4821 12.9365 47.693 15.6165 50.3802 17.7597C51.7516 18.8508 53.5497 20.0028 53.8636 21.871C54.2232 24.0043 52.9006 24.3091 51.2487 23.6782C47.7605 22.3185 44.7706 19.9261 42.6789 16.8211C41.4983 15.0721 40.6501 13.1205 40.1768 11.0641V11.0641Z" fill="#28213D"/>
<path d="M81.7919 63.1479C80.0578 64.0256 79.6343 61.9563 79.4849 59.7681C79.3356 57.5281 79.8445 53.7338 81.4262 52.085C83.008 50.4363 85.3181 49.5403 86.3756 52.0088C87.2746 54.1117 85.9154 61.0603 81.7919 63.1479Z" fill="#A9B4C6"/>
<path d="M40.6279 63.1479C42.362 64.0256 42.7855 61.9563 42.9349 59.7681C43.0842 57.5281 42.5753 53.7338 40.9936 52.085C39.4118 50.4363 37.1018 49.5403 36.0442 52.0088C35.1421 54.1117 36.5044 61.0603 40.6279 63.1479Z" fill="#A9B4C6"/>
<path d="M87.9116 36.3045C87.5032 35.5304 86.6712 34.8935 86.4975 34.0371C86.3238 33.1807 86.6591 31.8032 86.4975 30.9407C85.5832 25.9548 82.624 27.5426 80.8106 25.2234C79.8963 24.05 80.2286 22.8401 78.1653 21.7216C76.352 20.7403 74.8129 22.2824 73.4841 21.874C72.5089 21.5693 73.2556 20.2131 70.6895 19.4573C68.8609 18.9209 67.5657 20.5483 66.685 20.5148C65.6488 20.4752 65.3226 18.5491 62.7626 18.5491C60.035 18.5491 58.941 20.2984 57.92 20.2131C56.3535 20.079 56.1798 18.8447 53.7874 19.6218C51.0446 20.5148 51.3127 22.1727 49.6426 22.6695C48.1584 23.1053 47.9817 21.7552 45.6807 22.3251C43.9253 22.767 42.368 24.5255 41.8773 26.5917C41.4933 28.2131 42.0815 29.6394 40.6187 30.3464C39.0309 31.1022 36.221 34.2748 37.0377 37.8375C37.1962 38.5293 37.8758 39.1784 37.8209 39.922C37.766 40.6656 37.0956 41.3636 36.8214 42.0218C36.2118 43.4451 35.8857 45.2858 36.7177 46.6908C37.2998 47.6782 38.1074 48.0226 38.3238 49.3087C38.5097 50.4302 38.3238 51.5853 38.5341 52.7068C38.7992 54.0691 39.1162 55.7056 40.1981 56.6839C43.1329 59.3354 47.2076 59.5975 50.9653 59.8016C54.1836 59.9784 57.3998 60.0556 60.6141 60.0333C63.8303 60.0516 67.0466 59.9743 70.2629 59.8016C72.2408 59.6797 74.1455 59.4176 76.1021 59.1464C77.8392 58.9056 81.3105 58.2474 81.8925 56.7083C82.4484 55.3058 82.7885 53.8272 82.9013 52.3228C82.9714 50.4942 85.6777 49.7171 86.5066 52.3837C88.4876 50.354 87.6038 49.3178 88.0579 47.6386C88.3626 46.4957 89.0392 46.4195 89.2495 44.8439C89.5542 42.5003 88.0579 42.7289 87.9817 41.0649C87.9664 40.9643 88.8259 38.0721 87.9116 36.3045Z" fill="#28213D"/>
<path d="M76.4068 16.1231C76.3733 16.053 76.3428 15.9799 76.3062 15.9068C75.7438 14.7632 74.8739 13.799 73.794 13.1223C72.7142 12.4457 71.4671 12.0833 70.1928 12.0759C68.8518 12.0759 67.5504 12.4355 66.3436 11.6828C65.5299 11.1769 65.1002 10.607 64.1493 10.3205C61.8209 9.61952 59.1573 10.0157 57.027 11.1403C54.2841 12.5666 50.691 16.3456 51.0415 19.7254C51.2122 21.362 52.4251 22.7456 53.8575 23.5532C57.0484 25.3483 61.1717 25.2111 64.7131 25.2233H64.9478C66.9196 25.2233 70.8236 25.138 73.1154 24.5071C73.6121 24.37 74.0876 23.7696 74.5265 23.6934C74.7703 23.6508 75.8674 22.575 76.0503 22.1209C76.8396 20.1033 77.2967 18.1925 76.4068 16.1231Z" fill="#28213D"/>
<path d="M79.936 46.9986C78.6773 39.6355 77.5436 37.0603 74.8251 34.2626C72.4724 31.8458 65.0331 31.5746 60.3977 31.4252C55.9725 31.282 51.1817 31.9494 46.9516 34.7776C45.4979 35.7529 44.5744 37.4108 42.4442 43.7772C41.6152 46.255 39.7713 50.2961 40.0273 54.3677C40.3717 59.893 41.7676 67.8382 43.7424 72.6534C46.3512 78.9925 53.0224 80.882 55.1954 81.4915C55.9268 81.6866 62.8144 82.5186 65.862 81.5677C71.2898 79.8793 77.1779 75.2591 79.2929 69.618C81.1215 64.7418 81.1367 60.5117 81.1367 54.9742C81.1398 53.0481 80.384 49.6317 79.936 46.9986Z" fill="#A9B4C6"/>
<path d="M67.1299 71.3277C67.1604 71.2241 67.1909 71.1235 67.2152 71.0229C67.2334 70.9571 67.2334 70.8876 67.2152 70.8218C67.072 70.3037 64.9203 69.7887 64.4297 69.682C62.8053 69.3315 61.0926 69.3772 59.4438 69.4778C57.4142 69.6073 55.4347 70.164 53.635 71.1113C52.6933 71.7848 55.0461 75.9571 58.5112 76.4477C62.1927 76.9536 66.0267 74.9605 67.1299 71.3277Z" fill="#A9B4C6"/>
</g>
</svg>
